!!!Genre:	A gute nakht
!!!Mode:	Freygish
!!!Listening/dance:	listening
!!!One_Mode:	yes
**kern
*I"P1
*clefG2
*k[b-e-a-]
*G:frey
*M4/4
*>A
=1
4g
2g 2bn
4d
=2
4g
2g 2bn
4d
=3!|:
4.g
8a-
8bnL
(8qdd/
8cc)
8b
8a-J
=4
4g
4gg
4dd
4bn
=5
4.bn
8cc
8ddL
(8qee-/
8ee-)
8dd
8ccJ
=6
4.dd
8cc
2bn
=7
(8qdd/
4.cc)
8bn
(8qdd/
8ccL)
8b
8a-
8gJ)
=8
(8qdd/
4cc)
4f)
(8qa-/
4f)
(8qa-/
4f)
=9
8cL
8f
8g
8a-J
(8.bnL
16gJk)
(8qdd/
12ccL)
12b
12a-J
=10
(2g
4.gg)
8r
=11:|!|:
*>B
(4.gg
8ff#X)
(8qaa-/
(4.gg)
8ff#)
=12
8ggL
8ff#X
(8qff#/
8ee-)
8ddJ
(8qdd/
2cc)
=13
(8qcc/
(4.ffn)
8gg)
(8qgg/
8ffL)
8ee-
8dd
8ccJ
=14
8ffL
8b-
8b-
8b-J
4.b-
8r
=15
(4.dd
8cc)
8bnL
8a-
8g
8fJ
=16
8ccL
8f
8f
8fJ
4.f
8r
=17
8cL
8f
8g
8a-J
(8qcc/
8.bnL)
16gJk
12ccL
12b
12a-J
=18
(2g
4.gg)
8r
=:|!
*-
